icons/strikethrough-16.svg

<svg xmlns="http://www.w3.org/2000/svg" width="16" height="16" viewBox="0 0 16 16"><path d="M11.055 8.5c.524.536.815 1.257.811 2.007a3.133 3.133 0 01-1.12 2.408C9.948 13.597 8.748 14 7.096 14c-1.706 0-3.104-.607-3.902-1.377a.751.751 0 011.042-1.079c.48.463 1.487.956 2.86.956 1.422 0 2.232-.346 2.676-.726.435-.372.594-.839.594-1.267 0-.472-.208-.857-.647-1.197-.448-.346-1.116-.623-1.951-.81H1.75a.75.75 0 010-1.5h12.5a.75.75 0 010 1.5zM7.581 3.25c-2.036 0-2.778 1.082-2.778 1.786 0 .055.002.107.006.157a.75.75 0 01-1.496.114 3.506 3.506 0 01-.01-.271c0-1.832 1.75-3.286 4.278-3.286 1.418 0 2.721.58 3.514 1.093a.75.75 0 11-.814 1.26c-.64-.414-1.662-.853-2.7-.853z"/></svg>

<svg xmlns="http://www.w3.org/2000/svg" width="16" height="16" viewBox="0 0 16 16">
  <defs/>
  <path d="M11.055,8.5 C11.579,9.036 11.87,9.757 11.866,10.507 C11.868,11.436 11.458,12.318 10.746,12.915 C9.948,13.597 8.748,14 7.096,14 C5.39,14 3.992,13.393 3.194,12.623 C2.896,12.335 2.888,11.86 3.175,11.562 C3.463,11.265 3.938,11.256 4.236,11.544 C4.716,12.007 5.723,12.5 7.096,12.5 C8.518,12.5 9.328,12.154 9.772,11.774 C10.207,11.402 10.366,10.935 10.366,10.507 C10.366,10.035 10.158,9.65 9.719,9.31 C9.271,8.964 8.603,8.687 7.768,8.5 L1.75,8.5 C1.336,8.5 1,8.164 1,7.75 C1,7.336 1.336,7 1.75,7 L14.25,7 C14.664,7 15,7.336 15,7.75 C15,8.164 14.664,8.5 14.25,8.5 Z M7.581,3.25 C5.545,3.25 4.803,4.332 4.803,5.036 C4.803,5.091 4.805,5.143 4.809,5.193 C4.84,5.606 4.531,5.967 4.118,5.998 C3.705,6.029 3.344,5.72 3.313,5.307 C3.306,5.217 3.303,5.126 3.303,5.036 C3.303,3.204 5.053,1.75 7.581,1.75 C8.999,1.75 10.302,2.33 11.095,2.843 C11.443,3.068 11.543,3.532 11.318,3.88 C11.093,4.228 10.629,4.328 10.281,4.103 C9.641,3.689 8.619,3.25 7.581,3.25 Z"/>
</svg>
